packages/assets/static/images/icons/x-logo.svg

<svg width="24" height="24" viewBox="0 0 24 24" xmlns="http://www.w3.org/2000/svg">
<path d="M20.1328 19.8478L14.2641 10.6247L20.055 4.25438C20.186 4.10674 20.2535 3.91343 20.2429 3.71636C20.2323 3.51929 20.1444 3.33435 19.9984 3.20161C19.8523 3.06888 19.6598 2.99907 19.4627 3.00731C19.2655 3.01555 19.0795 3.10117 18.945 3.24562L13.4288 9.31312L9.63282 3.34781C9.56513 3.24127 9.47164 3.15353 9.36103 3.09274C9.25041 3.03194 9.12623 3.00004 9.00001 3H4.50001C4.36553 2.99993 4.23351 3.03603 4.11777 3.10449C4.00204 3.17296 3.90684 3.27129 3.84214 3.38918C3.77745 3.50707 3.74564 3.64018 3.75004 3.77458C3.75445 3.90898 3.79491 4.03973 3.86719 4.15313L9.73594 13.3753L3.94501 19.7503C3.87738 19.823 3.82485 19.9083 3.79045 20.0014C3.75605 20.0945 3.74047 20.1935 3.74461 20.2927C3.74875 20.3918 3.77254 20.4892 3.81458 20.5791C3.85663 20.669 3.9161 20.7496 3.98955 20.8164C4.063 20.8831 4.14896 20.9346 4.24246 20.9679C4.33597 21.0012 4.43514 21.0156 4.53425 21.0103C4.63335 21.0049 4.73041 20.98 4.81981 20.9369C4.9092 20.8937 4.98914 20.8333 5.05501 20.7591L10.5713 14.6916L14.3672 20.6569C14.4354 20.7625 14.5292 20.8494 14.6397 20.9093C14.7503 20.9693 14.8742 21.0005 15 21H19.5C19.6343 21 19.7662 20.9638 19.8818 20.8954C19.9974 20.827 20.0925 20.7288 20.1572 20.611C20.2218 20.4933 20.2537 20.3604 20.2494 20.2261C20.2451 20.0918 20.2049 19.9612 20.1328 19.8478ZM15.4116 19.5L5.86594 4.5H8.58469L18.1341 19.5H15.4116Z"/>
</svg>

<svg viewBox="0 0 24 24" xmlns="http://www.w3.org/2000/svg" aria-hidden="true" fill="currentColor"><path d="m20.133 19.848-5.869-9.223 5.791-6.37a.75.75 0 0 0-1.11-1.01l-5.516 6.068-3.796-5.965A.75.75 0 0 0 9 3H4.5a.75.75 0 0 0-.633 1.153l5.869 9.222-5.791 6.375a.75.75 0 1 0 1.11 1.01l5.516-6.068 3.796 5.965A.75.75 0 0 0 15 21h4.5a.75.75 0 0 0 .633-1.152m-4.721-.348-9.546-15h2.719l9.55 15z"/></svg>
